img/Logo.svg

<svg width="30" height="30" viewBox="0 0 30 30" fill="none" xmlns="http://www.w3.org/2000/svg">
<path fill-rule="evenodd" clip-rule="evenodd" d="M13.6096 0.0110096L15.1558 6.58369L12.6784 7.74571L14.066 11.8509L11.3872 12.5252L12.696 16.8196L9.03771 14.7836C8.88658 15.2865 8.71689 15.848 8.55899 16.3647C8.50072 16.5553 8.44293 16.7437 8.38757 16.9229C8.86016 16.7649 9.37842 16.5716 9.75424 16.4241L10.5397 16.1158L11.102 18.8062L15.5187 21.1091L12.0717 24.7272L13.7021 28.1938L12.4037 28.8396L10.3317 24.4341L13.1111 21.5168L9.83637 19.8094L9.48065 18.1072C9.14667 18.2285 8.79301 18.3507 8.47609 18.449C8.18803 18.5384 7.895 18.6194 7.66804 18.6545C7.57895 18.6683 7.39413 18.6944 7.20989 18.6521C7.12331 18.6322 6.88143 18.5633 6.72041 18.3085C6.5329 18.0118 6.60274 17.7131 6.66118 17.5709C6.66151 17.5701 6.66655 17.5572 6.67762 17.5257C6.68816 17.4957 6.7015 17.4565 6.71763 17.4079C6.74986 17.3108 6.79073 17.1838 6.8385 17.0327C6.93391 16.731 7.05422 16.3414 7.18304 15.9199C7.44054 15.0773 7.72997 14.1136 7.91788 13.4834L8.17606 12.6175L10.2568 13.7755L9.55114 11.4603L12.1831 10.7978L10.8848 6.95672L13.474 5.74227L12.2077 0.359823L13.6096 0.0110096ZM7.41182 17.1926C7.41182 17.1926 7.41464 17.1922 7.41961 17.1921C7.4142 17.1926 7.41182 17.1926 7.41182 17.1926Z" fill="#E3F1FF"/>
<path fill-rule="evenodd" clip-rule="evenodd" d="M16.9977 1.13255L18.8633 7.89472L18.6101 8.19714C18.2399 8.63934 17.6625 9.31773 17.1323 9.91718C16.9175 10.1601 16.7079 10.3928 16.5215 10.5929C16.7023 10.6866 16.9142 10.7901 17.1498 10.9003C18.0516 11.322 19.198 11.7942 19.9802 12.1005L21.4786 12.6872L17.1048 15.0377L19.0069 16.8298L17.6075 18.9839L20.6082 20.904L17.6214 29.0022L16.2728 28.4762L18.8389 21.5188L15.5806 19.4339L17.1202 17.0639L14.6139 14.7027L17.993 12.8868C17.5037 12.6802 17.0013 12.4603 16.5527 12.2505C16.088 12.0332 15.6548 11.8147 15.3526 11.626C15.2146 11.5399 15.0425 11.4231 14.916 11.2832C14.8632 11.2248 14.7264 11.0657 14.6865 10.8231C14.6632 10.6815 14.6739 10.514 14.7499 10.3496C14.8232 10.1909 14.9332 10.0875 15.0256 10.0245C15.0226 10.0266 15.0229 10.0263 15.0269 10.023C15.0359 10.0154 15.064 9.99161 15.1158 9.94193C15.1816 9.87893 15.2652 9.79425 15.3642 9.68997C15.5619 9.48192 15.8056 9.2128 16.0654 8.91906C16.4756 8.45532 16.9167 7.94087 17.2636 7.53057L15.6101 1.53743L16.9977 1.13255Z" fill="#E3F1FF"/>
<path fill-rule="evenodd" clip-rule="evenodd" d="M24.3807 5.85587C21.9071 3.25371 18.6839 1.59456 15.613 1.59456L15.613 0.0370828C19.1934 0.0370829 22.7851 1.94943 25.4636 4.7671C28.1452 7.58808 30 11.4085 30 15.3522C30 23.1578 23.3487 30 16.262 30V28.4425C22.478 28.4425 28.4856 22.3333 28.4856 15.3522C28.4856 11.9025 26.8511 8.45473 24.3807 5.85587Z" fill="#E3F1FF"/>
<path fill-rule="evenodd" clip-rule="evenodd" d="M1.51442 15.7231C1.51442 22.7769 6.97918 28.1829 13.7019 28.1829L13.7019 29.7404C6.16617 29.7404 3.3738e-07 23.6609 0 15.7231C-1.6762e-07 11.7794 1.49788 7.86663 3.92553 4.93508C6.3546 2.00181 9.76123 1.72288e-07 13.5938 0V1.55748C10.297 1.55748 7.28537 3.27995 5.07849 5.94491C2.87019 8.61159 1.51442 12.171 1.51442 15.7231Z" fill="#E3F1FF"/>
</svg>

<svg width="30" height="30" fill="none" xmlns="http://www.w3.org/2000/svg"><path fill-rule="evenodd" clip-rule="evenodd" d="m13.61.011 1.546 6.573-2.478 1.162 1.388 4.105-2.679.674 1.309 4.295-3.658-2.036a366.72 366.72 0 0 1-.65 2.139c.472-.158.99-.351 1.366-.499l.786-.308.562 2.69 4.417 2.303-3.447 3.618 1.63 3.467-1.298.646-2.072-4.406 2.78-2.917-3.276-1.708-.355-1.702c-.334.122-.688.244-1.005.342a6.15 6.15 0 0 1-.808.205c-.09.014-.274.04-.458-.002a.78.78 0 0 1-.49-.344.806.806 0 0 1-.059-.737l.017-.045.04-.118a127.786 127.786 0 0 0 .465-1.488c.258-.843.547-1.806.735-2.437l.258-.866 2.08 1.158-.705-2.315 2.632-.662-1.298-3.841 2.589-1.215L12.208.36 13.61.01zM7.412 17.193h.008-.008z" fill="#E3F1FF"/><path fill-rule="evenodd" clip-rule="evenodd" d="m16.998 1.133 1.865 6.762-.253.302c-.37.442-.947 1.12-1.478 1.72a36.11 36.11 0 0 1-.61.676c.18.094.392.197.628.307a52.84 52.84 0 0 0 2.83 1.2l1.499.587-4.374 2.35 1.902 1.793-1.4 2.154 3.001 1.92-2.987 8.098-1.348-.526 2.566-6.957-3.258-2.085 1.54-2.37-2.507-2.361 3.379-1.816c-.49-.207-.992-.427-1.44-.636a12.206 12.206 0 0 1-1.2-.625 2.086 2.086 0 0 1-.437-.343.909.909 0 0 1-.23-.46.798.798 0 0 1 .34-.8c.01-.008.038-.031.09-.081a7.72 7.72 0 0 0 .248-.252c.198-.208.442-.477.701-.77.41-.465.852-.98 1.199-1.39L15.61 1.538l1.388-.404z" fill="#E3F1FF"/><path fill-rule="evenodd" clip-rule="evenodd" d="M24.38 5.856c-2.473-2.602-5.696-4.261-8.767-4.261V.037c3.58 0 7.172 1.912 9.85 4.73C28.146 7.588 30 11.408 30 15.352 30 23.158 23.349 30 16.262 30v-1.558c6.216 0 12.224-6.109 12.224-13.09 0-3.45-1.635-6.897-4.105-9.496zM1.514 15.723c0 7.054 5.465 12.46 12.188 12.46v1.557C6.166 29.74 0 23.66 0 15.723 0 11.78 1.498 7.867 3.926 4.935 6.355 2.002 9.76 0 13.594 0v1.557c-3.297 0-6.309 1.723-8.516 4.388-2.208 2.667-3.564 6.226-3.564 9.778z" fill="#E3F1FF"/></svg>
